X:4830
L:1/8
M:4/4
K:Emin
"Em" BEGE"Em" BEGB |"D" ADED"D" FG A2 |"Em" BE E2"Bm" BFAF |"Em" GBAF"Am" E2 FA | 
"Em" BE E2"Em" BEGB |"D" AD F/E/D"D" FGAc |"Em" BE E2"Bm" BFAF |"Em" GBAF"Am" E3 A || 
"Em" B2 ed"Em" efge |"Bm" defg"D" afed |"Em" B2 ed"Em" efge |"D" agfa"Em" geed | 
"Em" B2 ed"Em" efge |"Bm" defg"D" afdf |"Em" efga"Em" bagf |"Em" e2 fd"A" e^cdc ||

